X:1
T:God of Our Strength, Enthroned Above
T:William Howard Doane, 1873
T:God of Our Strength, Enthroned Above
T:Public Domain
T:Public Domain
C:William Howard Doane, 1873
Z:Public Domain
%%score ( 1 2 ) ( 3 4 )
L:1/8
M:4/2
K:Eb
V:1 treble 
V:2 treble 
V:3 bass 
V:4 bass 
V:1
 [EG]4 [DF]2 E2 [EB]6 [EB]2 | [Ec]4 [Ee]4 [EB]8 | [EG]4 [DF]2 E2 [EB]6 [Ec]2 | [EB]4 [EG]4 [DF]8 | %4
w: 1.~God of our strength, en-|a- bove, The|source of life, the fount|love; O let|
w: 2.~To Thee we lift our|ful eyes, To|Thee on wings of faith|rise; Come Thou,|
w: 3.~God of our strength from|to day, Di-|rect our thoughts and guide|way; O may|
w: 4.~God of our strength, on|we call; God|of our hope, our light,|all, Thy Name|
 [EG]4 [DF]2 E2 [GB]6 [GB]2 | [Ac]4 (d2 e2) [Ge]8 | [Ee]4 [Ed]2 [Ec]2 (B2 G2) (E2 [FA]2) | %7
w: de- vo- tion’s sac- red|Our souls * a-|to praise Thy Name. * * *|
w: and let Thy courts on|Ring out * Thy|in ho- ly mirth. * * *|
w: our hearts u- nit- ed|In sweet * com-|ion, Lord, with Thee. * * *|
w: we praise, Thy love a-|Our Rock, * our|for ev- er- more. * * *|
 [EG]4 [DF]4 E8 ||"^Refrain" [DB]4 [EB]2 [FB]2 (E4 G4) | [Ac]4 [Ad]2 [Ae]2 [Ge]8 | %10
w: |||
w: |||
w: |||
w: |||
 [Ee]4 [Ed]2 [Ec]2 (B2 G2) (E2 [FA]2) | [EG]4 [DF]4 E8 |] %12
w: ||
w: ||
w: ||
w: ||
V:2
 x6 E2 x8 | x16 | x6 E2 x8 | x16 | x6 E2 x8 | x4 E4 x8 | x8 E4 E2 x2 | x8 E8 || x8 B8 | x16 | %10
w: throned||of||flame,|wake|||||
w: joy-||we||earth|praise|||||
w: day||our||be,|mun-|||||
w: Thee||our||dore,|Shield|||||
 x8 E4 E2 x2 | x8 E8 |] %12
w: ||
w: ||
w: ||
w: ||
V:3
 [E,B,]4 [E,A,]2 [E,G,]2 [E,G,]6 [E,G,]2 | [A,,A,]4 [C,A,]4 [E,G,]8 | %2
w: ~ ~ ~ ~ ~|~ ~ ~|
 [E,B,]4 [E,A,]2 [E,G,]2 [E,G,]6 [E,A,]2 | [E,G,]4 [E,B,]4 [B,,B,]8 | %4
w: ~ ~ ~ ~ ~|~ ~ ~|
 [E,B,]4 [E,A,]2 [E,G,]2 [E,E]6 [E,E]2 | [A,E]4 (B,2 C2) [E,B,]8 | %6
w: ~ ~ ~ ~ ~|~ ~ * ~|
 [A,,C]4 [A,,B,]2 [A,,A,]2 (G,2 B,2) ([C,G,]2 [A,,C]2) | [B,,B,]4 [B,,A,]4 [E,G,]8 || %8
w: ~ ~ ~ ~ * ~ *|~ God of|
 [B,,F,]4 [B,,G,]2 [B,,A,]2 (G,2 B,2 E4) | [A,E]4 [A,B,]2 [A,C]2 [E,B,]8 | %10
w: our strength, we wait * *|Thee, Our sure de-|
 [A,,C]4 [A,,B,]2 [A,,A,]2 (G,2 B,2) ([C,G,]2 [A,,C]2) | [B,,B,]4 [B,,A,]4 [E,G,]8 |] %12
w: fense for- ev- er * be. *||
V:4
 x16 | x16 | x16 | x16 | x16 | x4 A,4 x8 | x8 B,,4 x4 | x16 || x8 E,8 | x16 | x8 B,,4 x4 | x16 |] %12
w: |||||~|~||on||||

